img/prewArrow.svg

<svg width="32" height="20" viewBox="0 0 32 20" fill="none" xmlns="http://www.w3.org/2000/svg">
<path d="M27.6911 8.76265L6.64523 8.76265L11.269 4.13893C11.9067 3.50117 11.9067 2.54454 11.269 1.90678C10.6312 1.26903 9.67457 1.26903 9.03681 1.90678L1.70263 9.24097C1.06487 9.87872 1.06487 10.8354 1.70263 11.4731L9.03681 18.8073C9.67457 19.445 10.6312 19.445 11.269 18.8073C11.9067 18.1695 11.9067 17.2129 11.269 16.5752L6.64523 11.9514L27.6911 11.9514C28.4883 11.9514 29.2855 11.3137 29.2855 10.357C29.2855 9.40041 28.4883 8.76265 27.6911 8.76265Z" fill="#458FF6"/>
</svg>

<svg width="32" height="20" fill="none" xmlns="http://www.w3.org/2000/svg"><path d="M27.691 8.763H6.645l4.624-4.624c.638-.638.638-1.594 0-2.232-.638-.638-1.594-.638-2.232 0L1.703 9.24c-.638.638-.638 1.594 0 2.232l7.334 7.334c.638.638 1.594.638 2.232 0 .638-.637.638-1.594 0-2.232L6.645 11.95h21.046c.797 0 1.595-.637 1.595-1.594 0-.957-.798-1.594-1.595-1.594z" fill="#458FF6"/></svg>
